(Exported by FreeCAD)
(Post Processor: grbl_post)
(Output Time:2020-04-24 00:36:35.589611)
(begin preamble)
G17 G90
G21
(begin operation: Default Tool)
(Path: Default Tool)
(Default Tool)
(begin toolchange)
; M6 T1
M3 S0.0000
(finish operation: Default Tool)
(begin operation: Contour)
(Path: Contour)
(Contour)
(Compensated Tool Path. Diameter: 5.0)
G0 Z16.0000
G0 X11.7678 Y11.7678
G0 Z14.0000
G1 X11.7678 Y11.7678 Z6.0000 F60.00
G2 X12.5000 Y10.0000 Z6.0000 I-1.7678 J-1.7678 F300.00
G1 X12.5000 Y0.0000 Z6.0000 F300.00
G2 X10.0000 Y-2.5000 Z6.0000 I-2.5000 J0.0000 F300.00
G1 X0.0000 Y-2.5000 Z6.0000 F300.00
G2 X-2.5000 Y0.0000 Z6.0000 I0.0000 J2.5000 F300.00
G1 X-2.5000 Y10.0000 Z6.0000 F300.00
G2 X0.0000 Y12.5000 Z6.0000 I2.5000 J-0.0000 F300.00
G1 X10.0000 Y12.5000 Z6.0000 F300.00
G2 X11.7678 Y11.7678 Z6.0000 I-0.0000 J-2.5000 F300.00
G1 X11.7678 Y11.7678 Z1.0000 F60.00
G2 X12.5000 Y10.0000 Z1.0000 I-1.7678 J-1.7678 F300.00
G1 X12.5000 Y0.0000 Z1.0000 F300.00
G2 X10.0000 Y-2.5000 Z1.0000 I-2.5000 J0.0000 F300.00
G1 X0.0000 Y-2.5000 Z1.0000 F300.00
G2 X-2.5000 Y0.0000 Z1.0000 I0.0000 J2.5000 F300.00
G1 X-2.5000 Y10.0000 Z1.0000 F300.00
G2 X0.0000 Y12.5000 Z1.0000 I2.5000 J-0.0000 F300.00
G1 X10.0000 Y12.5000 Z1.0000 F300.00
G2 X11.7678 Y11.7678 Z1.0000 I-0.0000 J-2.5000 F300.00
G1 X11.7678 Y11.7678 Z-1.0000 F60.00
G2 X12.5000 Y10.0000 Z-1.0000 I-1.7678 J-1.7678 F300.00
G1 X12.5000 Y0.0000 Z-1.0000 F300.00
G2 X10.0000 Y-2.5000 Z-1.0000 I-2.5000 J0.0000 F300.00
G1 X0.0000 Y-2.5000 Z-1.0000 F300.00
G2 X-2.5000 Y0.0000 Z-1.0000 I0.0000 J2.5000 F300.00
G1 X-2.5000 Y10.0000 Z-1.0000 F300.00
G2 X0.0000 Y12.5000 Z-1.0000 I2.5000 J-0.0000 F300.00
G1 X10.0000 Y12.5000 Z-1.0000 F300.00
G2 X11.7678 Y11.7678 Z-1.0000 I-0.0000 J-2.5000 F300.00
G0 Z16.0000
(finish operation: Contour)
(begin operation: Profile_Faces)
(Path: Profile_Faces)
(Profile_Faces)
(Compensated Tool Path. Diameter: 5.0)
G0 Z16.0000
(finish operation: Profile_Faces)
(begin operation: Pocket_Shape)
(Path: Pocket_Shape)
(Pocket_Shape)
G0 Z16.0000
G0
G0 Z14.0000
G0 Z16.0000
(finish operation: Pocket_Shape)
(begin postamble)
M5
G17 G90
; M2
